X:1
T: The Three Creeks Shore
C:Muriel A Johnstone
R:Jig
%Q:180
K:D
M:6/8
L:1/16
|:A,2|D2F2E2 D2F2A2|d2f2e2 d6|f2e2d2 e2d2B2|A2B2d2 B2A2F2|
D2F2E2 D2F2A2|d2f2e2 d2B2A2|d2B2A2 B2A2F2|D2D2D2 D4A2|
d2a2f2 e2d2B2|A2B2d2 B4B2|A2B2c2 d4F2|E2D2B,2 B,4C2|
D2B,2A,2 A,2B,2D2|E2G2F2 E4c2|d2c2B2 B2A2F2|D2D2D2 D4:|
